packages/foundations/assets/icons/functional/images/technology/wifi_disabled_32.svg

<svg width="32" height="32" viewBox="0 0 32 32" fill="none" xmlns="http://www.w3.org/2000/svg">
<g clip-path="url(#clip0_187_654)">
<path fill-rule="evenodd" clip-rule="evenodd" d="M27.7071 4.29289C28.0676 4.65338 28.1349 5.27905 27.7071 5.70711C20.3758 13.0421 13.0425 20.3754 5.70711 27.7071C5.31658 28.0976 4.68342 28.0976 4.29289 27.7071C3.93241 27.3466 3.88396 26.706 4.29289 26.2929C6.13709 24.4449 7.98329 22.5985 9.8315 20.7537C9.61274 20.5634 9.4688 20.2805 9.4688 19.9688C9.4688 19.7813 9.5312 19.6088 9.6516 19.4343C10.8331 17.7199 12.5336 16.5384 14.4554 16.1282L17.4698 13.1136C16.9869 13.0385 16.496 13 16 13C12.6562 13 9.5273 14.7188 7.5643 17.5638C7.3711 17.8438 7.0312 17.9688 6.7188 17.9688C6.1875 17.9688 5.75 17.5313 5.75 16.9688C5.75 16.7813 5.8125 16.5573 5.9391 16.3762C8.2776 13.0313 12 11 16 11C17.076 11 18.1339 11.1493 19.1511 11.4336L21.5154 9.06941C19.7819 8.37166 17.9164 8 16 8C11.1562 8 6.6959 10.3438 3.8088 14.3099C3.6022 14.5938 3.2812 14.75 2.9688 14.75C2.4062 14.75 2 14.2813 2 13.75C2 13.5313 2.0625 13.3347 2.1904 13.1583C5.431 8.6875 10.5 6 16 6C18.4773 6 20.8671 6.53891 23.0418 7.54266L26.2929 4.29289C26.6834 3.90237 27.3166 3.90237 27.7071 4.29289ZM15.9843 21C17.6178 21 19 22.375 19 24.0312C19 25.6562 17.6178 27 15.9843 27C14.3508 27 13 25.6562 13 24.0312C13 22.375 14.3508 21 15.9843 21ZM15.9842 23C15.4444 23 15 23.4685 15 24.0312C15 24.5625 15.4444 25 15.9842 25C16.5238 25 17 24.5625 17 24.0312C17 23.4687 16.5238 23 15.9842 23ZM19.3999 16.8148C20.5428 17.4135 21.5417 18.3091 22.3172 19.4343C22.4375 19.6088 22.5 19.7813 22.5 19.9688C22.5 20.2813 22.3125 20.617 22.0338 20.8161C21.8637 20.9375 21.6875 21 21.5 21C21.1562 21 20.8466 20.8125 20.655 20.5321C19.9535 19.5056 18.9903 18.7385 17.8928 18.3222L19.3999 16.8148ZM22.9543 13.2613C24.1281 14.0993 25.172 15.1494 26.0296 16.3762C26.1562 16.5573 26.2188 16.7813 26.2188 16.9688C26.2188 17.5313 25.75 17.9688 25.25 17.9688C24.9375 17.9688 24.6136 17.8438 24.4113 17.5589C23.5981 16.4135 22.6115 15.4505 21.5064 14.7091L22.9543 13.2613ZM26.5212 9.69348C27.7511 10.6759 28.8591 11.8377 29.8099 13.1582C29.9375 13.3354 30 13.5313 30 13.75C30 14.2813 29.5938 14.75 29.0312 14.75C28.7188 14.75 28.3978 14.5938 28.1912 14.3099C27.2996 13.085 26.2549 12.0149 25.095 11.1207L26.5212 9.69348Z" fill="#1A1C1F"/>
</g>
<defs>
<clipPath id="clip0_187_654">
<rect width="32" height="32" fill="white"/>
</clipPath>
</defs>
</svg>

<svg xmlns="http://www.w3.org/2000/svg" width="32" height="32" fill="none"><g clip-path="url(#a)"><path fill="#1A1C1F" fill-rule="evenodd" d="M27.707 4.293c.36.36.428.986 0 1.414a61832 61832 0 0 1-22 22 1 1 0 0 1-1.414 0 1.01 1.01 0 0 1 0-1.414 4012 4012 0 0 1 5.539-5.54 1.05 1.05 0 0 1-.363-.784c0-.188.062-.36.183-.535 1.181-1.714 2.882-2.896 4.803-3.306l3.015-3.014A9.6 9.6 0 0 0 16 13c-3.344 0-6.473 1.719-8.436 4.564-.193.28-.533.405-.845.405a.98.98 0 0 1-.969-1c0-.188.063-.412.19-.593C8.277 13.031 12 11 16 11c1.076 0 2.134.15 3.151.434l2.364-2.365A14.8 14.8 0 0 0 16 8c-4.844 0-9.304 2.344-12.191 6.31-.207.284-.528.44-.84.44-.563 0-.969-.469-.969-1q0-.327.19-.592C5.431 8.688 10.5 6 16 6c2.477 0 4.867.539 7.042 1.543l3.25-3.25a1 1 0 0 1 1.415 0M15.984 21C17.618 21 19 22.375 19 24.031 19 25.656 17.618 27 15.984 27 14.351 27 13 25.656 13 24.031 13 22.375 14.35 21 15.984 21m0 2c-.54 0-.984.468-.984 1.031 0 .532.444.969.984.969S17 24.563 17 24.031C17 23.47 16.524 23 15.984 23m3.416-6.185c1.143.598 2.142 1.494 2.917 2.62.12.174.183.346.183.534 0 .312-.187.648-.466.847A.9.9 0 0 1 21.5 21c-.344 0-.653-.187-.845-.468-.702-1.026-1.665-1.794-2.762-2.21zm3.554-3.554a12.9 12.9 0 0 1 3.076 3.115c.126.181.189.405.189.593 0 .562-.469 1-.969 1-.312 0-.636-.125-.839-.41a11.3 11.3 0 0 0-2.905-2.85zm3.567-3.568a17.6 17.6 0 0 1 3.289 3.465q.191.264.19.592c0 .531-.406 1-.969 1-.312 0-.633-.156-.84-.44a15.7 15.7 0 0 0-3.096-3.19z" clip-rule="evenodd"/></g><defs><clipPath id="a"><path fill="#fff" d="M0 0h32v32H0z"/></clipPath></defs></svg>
